;FLAVOR:Marlin
;TIME:5654
;Filament used: 5.00212m
;Layer height: 0.2
;MINX:42.891
;MINY:49.463
;MINZ:0.3
;MAXX:149.109
;MAXY:153.57
;MAXZ:12.9
;Generated with Cura_SteamEngine 4.4.1
M140 S43
M105
M190 S43
M104 S200
M105
M109 S200
M82 ;absolute extrusion mode
G28 ;Home
G1 Z15.0 F6000 ;Move the platform down 15mm
;Prime the extruder
G92 E0
G1 F200 E3
G92 E0
G92 E0
G92 E0
G1 F1500 E-6.5
;LAYER_COUNT:64
;LAYER:0
M107
M204 S5000
G0 F1500 X45.868 Y51.414 Z0.3
M204 S2000
;TYPE:SKIRT
G1 F1500 E0
G1 X46.102 Y51.217 E0.01526
G1 X46.41 Y50.981 E0.03462
G1 X46.543 Y50.884 E0.04283
G1 X46.719 Y50.763 E0.05349
G1 X46.967 Y50.609 E0.06805
G1 X47.313 Y50.415 E0.08784
G1 X47.606 Y50.27 E0.10415
G1 X48.287 Y49.975 E0.14118
G1 X48.641 Y49.846 E0.15997
G1 X48.858 Y49.781 E0.17128
G1 X49.048 Y49.73 E0.18109
G1 X49.51 Y49.622 E0.20476
G1 X49.891 Y49.557 E0.22404
G1 X50.422 Y49.499 E0.25069
G1 X50.627 Y49.483 E0.26095
G1 X50.829 Y49.474 E0.27104
G1 X50.949 Y49.471 E0.27703
G1 X51.957 Y49.464 E0.32732
G1 X51.979 Y49.464 E0.32842
G1 X134.471 Y49.463 E4.44396
G1 X140.301 Y49.464 E4.73482
G1 X140.346 Y49.464 E4.73706
G1 X140.898 Y49.472 E4.76461
G1 X140.998 Y49.475 E4.7696
G1 X141.546 Y49.5 E4.79697
G1 X141.887 Y49.534 E4.81406
G1 X142.498 Y49.628 E4.8449
G1 X142.784 Y49.686 E4.85946
G1 X143.005 Y49.741 E4.87083
G1 X143.208 Y49.799 E4.88136
G1 X143.517 Y49.898 E4.89755
G1 X143.799 Y50.003 E4.91256
G1 X144.276 Y50.207 E4.93844
G1 X144.549 Y50.339 E4.95357
G1 X144.76 Y50.454 E4.96556
G1 X144.847 Y50.503 E4.97054
G1 X145.108 Y50.656 E4.98563
G1 X145.341 Y50.807 E4.99949
G1 X145.647 Y51.024 E5.0182
G1 X145.787 Y51.129 E5.02693
G1 X146.06 Y51.346 E5.04433
G1 X146.259 Y51.517 E5.05742
G1 X146.502 Y51.745 E5.07405
G1 X146.688 Y51.936 E5.08735
G1 X147.046 Y52.333 E5.11402
G1 X147.265 Y52.604 E5.1314
G1 X147.617 Y53.092 E5.16142
G1 X147.803 Y53.381 E5.17857
G1 X148.087 Y53.88 E5.20721
G1 X148.238 Y54.181 E5.22401
G1 X148.454 Y54.675 E5.25091
G1 X148.546 Y54.912 E5.26359
G1 X148.63 Y55.155 E5.27642
G1 X148.672 Y55.284 E5.28319
G1 X148.787 Y55.669 E5.30324
G1 X148.852 Y55.925 E5.31641
G1 X148.926 Y56.276 E5.33431
G1 X148.947 Y56.385 E5.33985
G1 X149.001 Y56.694 E5.3555
G1 X149.036 Y56.96 E5.36888
G1 X149.065 Y57.284 E5.38511
G1 X149.072 Y57.368 E5.38932
G1 X149.092 Y57.685 E5.40516
G1 X149.097 Y57.815 E5.41165
G1 X149.107 Y58.263 E5.43401
G1 X149.108 Y58.334 E5.43755
G1 X149.109 Y67.022 E5.871
G1 X149.109 Y144.36 E9.72941
G1 X149.097 Y145.234 E9.77301
G1 X149.09 Y145.394 E9.78101
G1 X149.065 Y145.785 E9.80055
G1 X149.045 Y145.997 E9.81118
G1 X149.012 Y146.249 E9.82386
G1 X148.992 Y146.378 E9.83037
G1 X148.917 Y146.812 E9.85234
G1 X148.861 Y147.072 E9.86561
G1 X148.769 Y147.426 E9.88386
G1 X148.689 Y147.687 E9.89748
G1 X148.481 Y148.276 E9.92864
G1 X148.409 Y148.462 E9.93859
G1 X148.304 Y148.709 E9.95198
G1 X148.128 Y149.062 E9.97166
G1 X147.669 Y149.854 E10.01733
G1 X147.421 Y150.22 E10.03939
G1 X147.091 Y150.642 E10.06611
G1 X146.864 Y150.902 E10.08333
G1 X146.434 Y151.344 E10.1141
G1 X146.141 Y151.61 E10.13384
G1 X145.643 Y152.009 E10.16568
G1 X145.377 Y152.201 E10.18204
G1 X145.036 Y152.421 E10.20229
G1 X144.723 Y152.599 E10.22025
G1 X144.201 Y152.858 E10.24933
G1 X144.018 Y152.941 E10.25935
G1 X143.818 Y153.025 E10.27017
G1 X143.483 Y153.145 E10.28793
G1 X142.889 Y153.32 E10.31882
G1 X142.484 Y153.411 E10.33953
G1 X141.907 Y153.502 E10.36867
G1 X141.588 Y153.536 E10.38468
G1 X141.322 Y153.551 E10.39797
G1 X141.182 Y153.556 E10.40496
G1 X140.057 Y153.57 E10.46109
G1 X51.661 Y153.57 E14.87118
G1 X51.104 Y153.562 E14.89898
G1 X51.007 Y153.559 E14.90382
G1 X50.471 Y153.535 E14.93059
G1 X50.12 Y153.5 E14.94818
G1 X49.474 Y153.399 E14.9808
G1 X49.12 Y153.323 E14.99887
G1 X48.869 Y153.254 E15.01185
G1 X48.751 Y153.219 E15.018
G1 X48.511 Y153.143 E15.03056
G1 X48.229 Y153.039 E15.04555
G1 X47.759 Y152.84 E15.07101
G1 X47.531 Y152.732 E15.0836
G1 X47.227 Y152.574 E15.10069
G1 X46.992 Y152.439 E15.11421
G1 X46.668 Y152.234 E15.13334
G1 X46.432 Y152.07 E15.14768
G1 X46.072 Y151.794 E15.17031
G1 X45.926 Y151.675 E15.17971
G1 X45.697 Y151.477 E15.19481
G1 X45.517 Y151.309 E15.2071
G1 X45.289 Y151.079 E15.22325
G1 X45.104 Y150.875 E15.23699
G1 X44.753 Y150.454 E15.26434
G1 X44.609 Y150.268 E15.27607
G1 X44.488 Y150.099 E15.28644
G1 X44.402 Y149.973 E15.29406
G1 X44.203 Y149.665 E15.31235
G1 X44.111 Y149.513 E15.32121
G1 X43.997 Y149.313 E15.3327
G1 X43.917 Y149.163 E15.34118
G1 X43.763 Y148.856 E15.35832
G1 X43.65 Y148.606 E15.372
G1 X43.428 Y148.049 E15.40192
G1 X43.334 Y147.778 E15.41623
G1 X43.264 Y147.543 E15.42846
G1 X43.235 Y147.436 E15.43399
G1 X43.138 Y147.064 E15.45317
G1 X43.077 Y146.779 E15.46771
G1 X43.007 Y146.356 E15.4891
G1 X42.995 Y146.278 E15.49304
G1 X42.957 Y146.007 E15.50669
G1 X42.929 Y145.699 E15.52212
G1 X42.897 Y144.948 E15.55962
G1 X42.894 Y144.843 E15.56486
G1 X42.891 Y144.537 E15.58013
G1 X42.891 Y58.671 E19.864
G1 X42.904 Y57.787 E19.90811
G1 X42.911 Y57.625 E19.9162
G1 X42.927 Y57.381 E19.9284
G1 X42.945 Y57.189 E19.93802
G1 X43.015 Y56.635 E19.96588
G1 X43.067 Y56.338 E19.98092
G1 X43.204 Y55.725 E20.01226
G1 X43.296 Y55.398 E20.02921
G1 X43.462 Y54.907 E20.05507
G1 X43.59 Y54.585 E20.07235
G1 X43.881 Y53.958 E20.10684
G1 X44.081 Y53.592 E20.12765
G1 X44.496 Y52.937 E20.16633
G1 X44.744 Y52.597 E20.18733
G1 X45.132 Y52.133 E20.2175
G1 X45.407 Y51.843 E20.23744
G1 X45.868 Y51.414 E20.26886
M204 S5000
G1 F1500 E13.76886
;MESH:display_cover.stl
G0 F1500 X46.355 Y54.693
G0 X47.252 Y55.304
G0 X50.363 Y73.945
M204 S2000
;TYPE:WALL-INNER
G1 F1500 E20.26886
G1 X49.879 Y74.382 E20.30139
G1 X49.55 Y74.938 E20.33363
G1 X49.401 Y75.566 E20.36583
G1 X49.443 Y76.211 E20.39807
G1 X49.673 Y76.812 E20.43018
G1 X50.069 Y77.32 E20.46231
G1 X50.605 Y77.685 E20.49467
G1 X51.2 Y77.865 E20.52568
G1 X51.658 Y77.881 E20.54854
G1 X52.271 Y77.741 E20.57991
G1 X52.824 Y77.413 E20.61199
G1 X53.234 Y76.964 E20.64232
G1 X53.512 Y76.383 E20.67446
G1 X53.606 Y75.743 E20.70673
G1 X53.509 Y75.102 E20.73907
G1 X53.225 Y74.521 E20.77134
G1 X52.783 Y74.052 E20.80349
G1 X52.22 Y73.738 E20.83565
G1 X51.59 Y73.61 E20.86772
G1 X50.953 Y73.682 E20.89971
G1 X50.363 Y73.945 E20.93193
M204 S5000
G0 X97.709 Y63.608
M204 S2000
G1 X97.495 Y64.291 E20.96764
G1 X97.401 Y64.999 E21.00327
G1 X97.433 Y65.713 E21.03893
G1 X97.587 Y66.411 E21.07459
G1 X97.861 Y67.074 E21.11038
G1 X98.245 Y67.675 E21.14597
G1 X98.728 Y68.203 E21.18167
G1 X99.296 Y68.638 E21.21736
G1 X99.93 Y68.968 E21.25302
G1 X100.612 Y69.184 E21.28871
G1 X101.32 Y69.277 E21.32434
G1 X102.036 Y69.246 E21.36009
G1 X102.733 Y69.091 E21.39571
G1 X103.394 Y68.817 E21.43141
G1 X103.997 Y68.433 E21.46708
G1 X104.524 Y67.95 E21.50274
G1 X104.959 Y67.383 E21.5384
G1 X105.291 Y66.749 E21.5741
G1 X105.505 Y66.066 E21.60981
G1 X105.599 Y65.358 E21.64544
G1 X105.567 Y64.644 E21.6811
G1 X105.413 Y63.946 E21.71676
G1 X105.139 Y63.283 E21.75255
G1 X104.755 Y62.682 E21.78813
G1 X104.272 Y62.154 E21.82383
G1 X103.705 Y61.719 E21.85949
G1 X103.07 Y61.388 E21.89521
G1 X102.388 Y61.174 E21.93087
G1 X101.68 Y61.08 E21.9665
G1 X100.964 Y61.112 E22.00226
G1 X100.267 Y61.267 E22.03788
G1 X99.606 Y61.54 E22.07356
G1 X99.003 Y61.924 E22.10923
G1 X98.476 Y62.407 E22.14489
G1 X98.041 Y62.974 E22.18055
G1 X97.709 Y63.608 E22.21625
M204 S5000
G0 X98.593 Y62.517
G0 X99.102 Y62.052
G0 X99.679 Y61.684
G0 X100.32 Y61.42
G0 X100.981 Y61.273
G0 X101.672 Y61.242
G0 X102.353 Y61.332
G0 X114.087 Y65.658
G0 X114.669 Y66.965
G0 X115.184 Y67.414
G0 X115.763 Y67.685
G0 X116.395 Y67.797
G0 X117.027 Y67.742
G0 X117.634 Y67.521
G0 X118.041 Y67.222
G0 X118.949 Y66.268
M204 S2000
G1 X118.922 Y66.285 E22.21784
G1 X118.933 Y66.261
G1 X118.992 Y66.135 E22.22459
G1 X119.025 Y65.946 E22.23416
G1 X119.111 Y65.463 E22.25864
G1 X119.082 Y65.139 E22.27486
G1 X119.051 Y64.783 E22.29269
G1 X119.04 Y64.752 E22.29433
G1 X118.995 Y64.629 E22.30087
G1 X119.082 Y64.736 E22.30146
G1 X119.38 Y64.934 E22.31239
G1 X119.615 Y65.091 E22.32649
G1 X120.231 Y65.27 E22.35849
G1 X120.872 Y65.252 E22.39048
G1 X121.479 Y65.045 E22.42248
G1 X121.995 Y64.664 E22.45448
G1 X122.373 Y64.145 E22.48651
G1 X122.576 Y63.538 E22.51844
G1 X122.588 Y62.898 E22.55038
G1 X122.406 Y62.283 E22.58238
G1 X122.05 Y61.751 E22.61431
G1 X121.548 Y61.352 E22.64631
G1 X120.97 Y61.127 E22.67725
G1 X120.565 Y61.076 E22.69761
G1 X119.95 Y61.145 E22.72849
G1 X119.363 Y61.403 E22.76048
G1 X118.882 Y61.828 E22.7925
G1 X118.551 Y62.378 E22.82453
G1 X118.401 Y63.001 E22.8565
G1 X118.41 Y63.129 E22.8629
G1 X118.441 Y63.582 E22.88555
G1 X118.443 Y63.608 E22.88685
G1 X118.426 Y63.584 E22.887
G1 X118.079 Y63.292 E22.89959
G1 X117.905 Y63.145 E22.91096
G1 X117.287 Y62.856 E22.945
G1 X116.615 Y62.737 E22.97904
G1 X115.933 Y62.797 E23.0132
G1 X115.387 Y62.997 E23.04221
G1 X115.294 Y63.03 E23.04713
G1 X115.192 Y63.101 E23.05333
G1 X115.085 Y63.176 E23.05985
G1 X115.094 Y63.018 E23.06229
G1 X115.098 Y62.968
G1 X115.067 Y62.875 E23.06718
G1 X114.897 Y62.372 E23.09367
G1 X114.478 Y61.897 E23.12527
G1 X113.939 Y61.632 E23.15524
G1 X113.54 Y61.574 E23.17535
G1 X112.949 Y61.662 E23.20516
G1 X112.416 Y61.988 E23.23633
G1 X112.07 Y62.441 E23.26477
G1 X111.905 Y62.974 E23.29261
G1 X111.931 Y63.531 E23.32043
G1 X112.145 Y64.045 E23.3482
G1 X112.527 Y64.463 E23.37646
G1 X113.083 Y64.736 E23.40736
G1 X113.631 Y64.772 E23.43476
G1 X113.712 Y64.777 E23.43881
G1 X113.986 Y64.683 E23.45326
G1 X113.962 Y64.82 E23.45376
G1 X113.948 Y64.9 E23.45726
G1 X113.893 Y65.211 E23.47301
G1 X113.889 Y65.234 E23.47418
G1 X113.896 Y65.321 E23.47853
G1 X113.926 Y65.652 E23.49512
G1 X113.7 Y65.473 E23.49968
G1 X113.548 Y65.352 E23.50689
G1 X113.526 Y65.344 E23.50806
G1 X112.97 Y65.127 E23.53784
G1 X112.565 Y65.076 E23.5582
G1 X111.95 Y65.145 E23.58908
G1 X111.363 Y65.403 E23.62107
G1 X110.882 Y65.828 E23.65309
G1 X110.551 Y66.378 E23.68511
G1 X110.401 Y67.001 E23.71708
G1 X110.445 Y67.639 E23.74899
G1 X110.678 Y68.238 E23.78105
G1 X111.082 Y68.736 E23.81305
G1 X111.615 Y69.091 E23.845
G1 X112.231 Y69.27 E23.877
G1 X112.872 Y69.252 E23.90899
G1 X113.479 Y69.045 E23.94099
G1 X113.995 Y68.664 E23.97299
G1 X114.373 Y68.145 E24.00502
G1 X114.559 Y67.591 E24.03418
G1 X114.576 Y67.538 E24.03695
G1 X114.584 Y67.123 E24.05766
G1 X114.783 Y67.29 E24.06149
G1 X114.825 Y67.325 E24.064
G1 X115.096 Y67.552 E24.08164
G1 X115.714 Y67.84 E24.11565
G1 X116.385 Y67.959 E24.14965
G1 X117.065 Y67.899 E24.18371
G1 X117.581 Y67.711 E24.21111
G1 X117.706 Y67.666 E24.21773
G1 X117.88 Y67.545 E24.22831
G1 X117.926 Y67.513 E24.2311
G1 X117.905 Y67.579
G1 X117.908 Y67.656
G1 X117.914 Y67.79 E24.23647
G1 X117.931 Y68.136 E24.25376
G1 X118.147 Y68.656 E24.28185
G1 X118.575 Y69.105 E24.3128
G1 X119.151 Y69.358 E24.34418
G1 X119.78 Y69.372 E24.37557
G1 X120.366 Y69.144 E24.40694
G1 X120.821 Y68.709 E24.43835
G1 X121.074 Y68.132 E24.46978
G1 X121.089 Y67.504 E24.50112
G1 X120.86 Y66.917 E24.53255
G1 X120.425 Y66.463 E24.56392
G1 X119.879 Y66.222 E24.5937
G1 X119.533 Y66.179 E24.61109
G1 X119.201 Y66.23 E24.62785
G1 X119.011 Y66.258 E24.63476
G1 X118.949 Y66.268
M204 S5000
G0 X133.397 Y61.137
G0 X134.689 Y60.83
M204 S2000
G1 X133.938 Y60.864 E24.67226
G1 X133.35 Y60.982 E24.70218
G1 X132.666 Y61.232 E24.73851
G1 X132.141 Y61.522 E24.76844
G1 X131.564 Y61.967 E24.80479
G1 X131.152 Y62.4 E24.83461
G1 X130.733 Y62.998 E24.87104
G1 X130.47 Y63.537 E24.90096
G1 X130.253 Y64.232 E24.93728
G1 X130.163 Y64.823 E24.96711
G1 X130.164 Y65.553 E25.00353
G1 X130.258 Y66.144 E25.03338
G1 X130.477 Y66.839 E25.06974
G1 X130.744 Y67.376 E25.09966
G1 X131.163 Y67.972 E25.13601
G1 X131.579 Y68.404 E25.16593
G1 X132.157 Y68.845 E25.2022
G1 X132.683 Y69.133 E25.23212
G1 X133.368 Y69.381 E25.26846
G1 X133.957 Y69.495 E25.29839
G1 X134.685 Y69.526 E25.33475
G1 X135.279 Y69.46 E25.36456
G1 X135.984 Y69.269 E25.401
G1 X136.531 Y69.027 E25.43085
G1 X137.146 Y68.634 E25.46726
G1 X137.595 Y68.238 E25.49713
G1 X138.062 Y67.678 E25.5335
G1 X138.37 Y67.166 E25.56331
G1 X138.648 Y66.492 E25.59969
G1 X138.79 Y65.911 E25.62953
G1 X138.852 Y65.184 E25.66593
G1 X138.81 Y64.586 E25.69584
G1 X138.652 Y63.876 E25.73212
G1 X138.434 Y63.318 E25.76201
G1 X138.068 Y62.687 E25.79841
G1 X137.692 Y62.221 E25.82828
G1 X137.153 Y61.729 E25.86469
G1 X136.655 Y61.398 E25.89452
G1 X135.993 Y61.091 E25.93093
G1 X135.419 Y60.925 E25.96074
G1 X134.689 Y60.83 E25.99746
M204 S5000
G0 X141.501 Y53.296
M204 S2000
G1 X141.934 Y53.378 E26.01945
G1 X142.337 Y53.5 E26.04046
G1 X142.754 Y53.678 E26.06308
G1 X143.201 Y53.932 E26.08873
G1 X143.573 Y54.205 E26.11175
G1 X143.917 Y54.518 E26.13495
G1 X144.207 Y54.845 E26.15676
G1 X144.522 Y55.278 E26.18347
G1 X144.779 Y55.731 E26.20945
G1 X144.976 Y56.184 E26.2341
G1 X145.152 Y56.748 E26.26358
G1 X145.264 Y57.327 E26.293
G1 X145.308 Y57.904 E26.32187
G1 X145.309 Y67.033 E26.77732
G1 X145.309 Y145.013 E30.66775
G1 X145.283 Y145.527 E30.69343
G1 X145.184 Y146.152 E30.725
G1 X145.072 Y146.569 E30.74654
G1 X144.878 Y147.089 E30.77423
G1 X144.684 Y147.478 E30.79592
G1 X144.384 Y147.958 E30.82416
G1 X144.037 Y148.389 E30.85176
G1 X143.651 Y148.762 E30.87854
G1 X143.217 Y149.092 E30.90574
G1 X142.846 Y149.311 E30.92724
G1 X142.385 Y149.516 E30.95241
G1 X141.839 Y149.678 E30.98082
G1 X141.354 Y149.753 E31.00531
G1 X140.638 Y149.77 E31.04104
G1 X51.022 Y149.77 E35.512
G1 X50.506 Y149.738 E35.53779
G1 X50.061 Y149.654 E35.56038
G1 X49.638 Y149.524 E35.58246
G1 X49.131 Y149.299 E35.61014
G1 X48.677 Y149.019 E35.63675
G1 X48.298 Y148.72 E35.66083
G1 X47.995 Y148.423 E35.682
G1 X47.671 Y148.033 E35.70729
G1 X47.389 Y147.611 E35.73262
G1 X47.149 Y147.152 E35.75846
G1 X46.966 Y146.688 E35.78334
G1 X46.805 Y146.102 E35.81366
G1 X46.715 Y145.509 E35.84358
G1 X46.691 Y145.023 E35.86786
G1 X46.691 Y58.041 E40.20741
G1 X46.718 Y57.493 E40.23478
G1 X46.783 Y57.047 E40.25727
G1 X46.924 Y56.475 E40.28666
G1 X47.118 Y55.956 E40.3143
G1 X47.405 Y55.399 E40.34556
G1 X47.734 Y54.917 E40.37468
G1 X48.093 Y54.508 E40.40183
G1 X48.501 Y54.146 E40.42904
G1 X48.871 Y53.885 E40.45163
G1 X49.337 Y53.632 E40.47809
G1 X49.786 Y53.457 E40.50213
G1 X50.325 Y53.324 E40.52983
G1 X50.828 Y53.268 E40.55508
G1 X51.744 Y53.264 E40.60078
G1 X134.472 Y53.263 E44.72809
G1 X140.979 Y53.264 E45.05273
G1 X141.501 Y53.296 E45.07882
M204 S5000
G0 X138.518 Y75.687
G0 X138.577 Y76.271
G0 X138.791 Y76.81
G0 X140.224 Y77.949
M204 S2000
G1 X140.866 Y77.933 E45.11086
G1 X141.454 Y77.737 E45.14178
G1 X141.945 Y77.397 E45.17158
G1 X142.35 Y76.888 E45.20403
G1 X142.596 Y76.263 E45.23754
G1 X142.639 Y75.585 E45.27143
G1 X142.479 Y74.932 E45.30497
G1 X142.133 Y74.359 E45.33837
G1 X141.637 Y73.925 E45.37125
G1 X141.053 Y73.667 E45.4031
G1 X140.493 Y73.594 E45.43128
G1 X139.865 Y73.691 E45.46298
G1 X139.283 Y73.977 E45.49533
G1 X138.809 Y74.434 E45.52818
G1 X138.486 Y75.019 E45.56152
G1 X138.355 Y75.68 E45.59514
G1 X138.419 Y76.311 E45.62678
G1 X138.65 Y76.89 E45.65788
G1 X139.071 Y77.411 E45.6913
G1 X139.607 Y77.767 E45.7234
G1 X140.224 Y77.949 E45.7555
M204 S5000
G0 X140.59 Y138.134
M204 S2000
G1 X139.951 Y138.207 E45.78758
G1 X139.363 Y138.471 E45.81974
G1 X138.879 Y138.906 E45.85221
G1 X138.549 Y139.465 E45.88459
G1 X138.401 Y140.094 E45.91683
G1 X138.443 Y140.734 E45.94883
G1 X138.673 Y141.339 E45.98112
G1 X139.073 Y141.846 E46.01334
G1 X139.603 Y142.21 E46.04541
G1 X140.2 Y142.39 E46.07652
G1 X140.658 Y142.406 E46.09939
G1 X141.272 Y142.266 E46.13081
G1 X141.825 Y141.937 E46.16291
G1 X142.233 Y141.489 E46.19314
G1 X142.512 Y140.906 E46.22538
G1 X142.607 Y140.265 E46.25771
G1 X142.508 Y139.626 E46.28997
G1 X142.225 Y139.045 E46.32222
G1 X141.782 Y138.576 E46.3544
G1 X141.221 Y138.262 E46.38648
G1 X140.59 Y138.134 E46.4186
M204 S5000
G0 X135.933 Y139.531
G0 X135.928 Y141.131
G0 X55.9 Y141.303
M204 S2000
G1 X136.1 Y141.303 E50.41979
G1 X136.1 Y88.103 E53.07395
G1 X55.9 Y88.103 E57.07515
G1 X55.9 Y141.303 E59.7293
M204 S5000
G0 X51.643 Y142.244
G0 X50.6 Y142.21
M204 S2000
G1 X51.207 Y142.39 E59.76089
G1 X51.658 Y142.406 E59.78341
G1 X52.272 Y142.266 E59.81482
G1 X52.824 Y141.938 E59.84686
G1 X53.235 Y141.489 E59.87723
G1 X53.512 Y140.906 E59.90943
